X:1
T:Sweden, LM
T:Sweden, LM
T:Henry Hiles, 1868
T:Public Domain Courtesy of the Cyber Hymnal™
C:Henry Hiles, 1868
Z:Public Domain
Z:Courtesy of the Cyber Hymnal™
%%score ( 1 2 ) ( 3 4 )
L:1/8
M:4/4
K:F
V:1 treble 
V:2 treble 
V:3 bass 
V:4 bass 
V:1
 [FA]4 [GA]2 [FA]2 | c4 F4 | [Fc]4 [EB]4 | [FA]8 | [FA]4 [GA]2 [Fd]2 | [F=B]4 c4 | [Ge]4 [Fd]4 x2 | %7
 [Ec]8 | [Ed]4 [Dd]2 [Ed]2 | c6 [Fc]2 | B6 [EB]2 | [EA]8 | [DA]4 [DG]2 [DA]2 | [Dc]6 [DB]2 | %14
 [FA]4 G4 | F8 |] %16
V:2
 x8 | F2 E2 F4 | x8 | x8 | x8 | x4 E2 ^F2 | x10 | x8 | x8 | G4 F2 x2 | F4 E2 x2 | x8 | x8 | x8 | %14
 x4 F2 E2 | F8 |] %16
V:3
 [F,C]4 [E,^C]2 [D,D]2 | [C,G,]2 [B,,C]2 [A,,C]4 | [G,,D]4 [C,C]4 | [F,C]8 | %4
 [F,C]4 [E,^C]2 [D,D]2 | D4 [A,C]4 | C6 z2 x2 | [C,C]8 | [C,B,]4 [C,B,]2 [C,B,]2 | %9
 B,4 A,2 [C,A,]2 | [C,G,]6 [C,G,]2 | [^C,G,]8 | ^F,4 [B,,G,]2 [A,,F,]2 | [^F,,A,]6 [G,,G,]2 | %14
 (A,2 =B,2) C2 _B,2 | [F,A,]8 |] %16
V:4
 x8 | x8 | x8 | x8 | x8 | G,2 ^G,2 x4 | G,4 (G,,4 =B,2) | x8 | x8 | C,6 x2 | x8 | x8 | %12
 (D,2 C,2) x4 | x8 | C,4 C,4 | x8 |] %16

